src/svg/pencil.svg

<svg height="1000" width="857.143" xmlns="http://www.w3.org/2000/svg"><path d="M202.554 857.152l50.778 -50.778 -131.13 -131.13 -50.778 50.778v59.706h71.424v71.424h59.706zm291.834 -517.824q0 -12.276 -12.276 -12.276 -5.58 0 -9.486 3.906l-302.436 302.436q-3.906 3.906 -3.906 9.486 0 12.276 12.276 12.276 5.58 0 9.486 -3.906l302.436 -302.436q3.906 -3.906 3.906 -9.486zm-30.132 -107.136l232.128 232.128 -464.256 464.256h-232.128v-232.128zm381.114 53.568q0 29.574 -20.646 50.22l-92.628 92.628 -232.128 -232.128 92.628 -92.07q20.088 -21.204 50.22 -21.204 29.574 0 50.778 21.204l131.13 130.572q20.646 21.762 20.646 50.778z"/></svg>

<svg height="1000" width="857.1" xmlns="http://www.w3.org/2000/svg"><path d="M202.6 857.1l50.7 -50.7L122.2 675.2 71.4 726v59.7h71.5v71.4h59.7zM494.4 339.3q0 -12.3 -12.3 -12.3 -5.5 0 -9.4 3.9L170.2 633.4q-3.9 3.9 -3.9 9.5 0 12.2 12.3 12.2 5.6 0 9.5 -3.9L490.5 348.8q3.9 -3.9 3.9 -9.5zM464.3 232.1l232.1 232.2L232.1 928.6H0V696.4zm381.1 53.6q0 29.6 -20.6 50.2l-92.7 92.7L500 196.4l92.6 -92q20.1 -21.3 50.3 -21.3 29.5 0 50.7 21.3l131.2 130.5q20.6 21.8 20.6 50.8z"/></svg>
